/* XPM */
static char * collectible_xpm[] = {
"32 32 21 1",
" 	c #5B6F5F",
".	c #707B64",
"+	c #475C54",
"@	c #868D6F",
"#	c #405051",
"$	c #BD968F",
"%	c #64765E",
"&	c #C6B19F",
"*	c #B17D87",
"=	c #C7BBA1",
"-	c #C3A996",
";	c #33101C",
">	c #57263B",
",	c #964851",
"'	c #7A2A3A",
")	c #CCCACB",
"!	c #A3A4A6",
"~	c #474059",
"{	c #2C1D35",
"]	c #5E5D6B",
"^	c #7C7C87",
" . .  .   +  @#$$#@.+ +   %  .%.",
" . %. %+@.##@+$&&$+#*#%+#+ % %.%",
" %  ..+##@#*#====$$$$#@##+%.  . ",
" %%  @@+*#+$$$$$$-$$$+#*+@+.+% %",
"%.%#+##$$---&$-;>--&&--$$##@#.%.",
"..%@#+*&&&&&&>;,,;>=&&&&&&*#@...",
".%+#@+$&&&=&>>',,;'>=&&&&&=+#%.%",
" @+@+$===-$>,',>;>>>;====-$+@++%",
"@+#++----$$;;,,,''>;;----$$++*##",
"@#*$$$$$$$-;>;>>>>;>;$$$$$-$&$#@",
"%+&$$&--$-$$;',,,'>;$&--$-$$&&+ ",
"+#$$&----$$;);;>>;;)>----$$$=&$#",
".@#$=&&&&&$;!'',,''!;&&&&&$$$=#%",
"##--$==&&$-$;';));';$==&&$-$-$#@",
"*$&$-$$----~{'>!!>'{~$$-----$$+#",
"$$&&$------{]''>>'']{-------$$$*",
"$&&&$$$$-$${~^',,'^~{$$$-$$$&&&$",
"+=&$$$--$$$${~^^^^~{$$--$$$$=&&+",
"#++$&-----$-${]]]~{$&-----$-$=$#",
"+@#$$-------&$$$$-$&--------$$*#",
"@##&&-------&$-----&&-------&+#.",
"+@#$&&&&&&&&&-----$=&&&&&&&&&#@#",
".#++$&&&&&=&$--$$$$==&&&&&=&$*#%",
"+#@+=====-$$-$$&--$$=====-$$++#+",
" @#*$----$$$$&-----$$----$$$#@@ ",
"  @#*$$$$$-$&------$$$$$$$$*##. ",
"% +#+##+$-$$&&--&&&$$&--+#$+#+. ",
".%##@#@#$$$$=&&&=&$$&--$+@##@#+ ",
"..%@#+#@##+$$===---$=&&##+@#@. %",
"%. %%.%+#@#*$$$$$--$$*#@#.+.+ % ",
" % % %%%+@#+$#+&&+#$+##%+% %  % ",
" % %  .%% +@#@#$$#@#@+@%% . .% %"};
