/* XPM */
static char * empty_xpm[] = {
"32 32 3 1",
" 	c #5B6F5F",
".	c #707B64",
"+	c #64765E",
"  ..  ..    ..      ++    ..++..",
"  ..  ..    ..      ++    ..++..",
"  ..  ++..  ++..  ..  ++  ++..++",
"  ..  ++..  ++..  ..  ++  ++..++",
"  ++    ....++......++..    ..  ",
"  ++    ....++......++..    ..  ",
"  ++++    ..++++..++....  ++  ++",
"  ++++    ..++++..++....  ++  ++",
"++..++..++..++  ++  ....++..++..",
"++..++..++..++  ++  ....++..++..",
"....++..  ++    ..  ++..++......",
"....++..  ++    ..  ++..++......",
"..++  ++..  ..  ..++..++  ++..++",
"..++  ++..  ..  ..++..++  ++..++",
"  ++..  ....  ..++....  ..++  ++",
"  ++..  ....  ..++....  ..++  ++",
"    ....++..    ++  ..  ++  ..  ",
"    ....++..    ++  ..  ++  ..  ",
"    ..  ++..++++++++..      ..  ",
"    ..  ++..++++++++..      ..  ",
"++    ..  ++  ..  ++..++  ++..  ",
"++    ..  ++  ..  ++..++  ++..  ",
"..++  ....  ......++  ..  ..++  ",
"..++  ....  ......++  ..  ..++  ",
"....++..  ..  ......++..++..  ++",
"....++..  ..  ......++..++..  ++",
"++..  ++++..++..  ..  ..++  ++  ",
"++..  ++++..++..  ..  ..++  ++  ",
"  ++  ++  ++++++  ++  ++    ++  ",
"  ++  ++  ++++++  ++  ++    ++  ",
"  ++  ++    ..++++  ..  ..++  ++",
"  ++  ++    ..++++  ..  ..++  ++"};
