/* XPM */
static char * exit_xpm[] = {
"32 32 11 1",
" 	c #5B6F5F",
".	c #707B64",
"+	c #64765E",
"@	c #C4C3BC",
"#	c #A3A4A6",
"$	c #B17D87",
"%	c #787685",
"&	c #5E5D6B",
"*	c #726778",
"=	c #736E7D",
"-	c #474059",
"  ..  ..    ..      ++    ..++..",
"  ..  ..    ..      ++    ..++..",
"  ..  ++..  ++..  ..  ++  ++..++",
"  ..@#@@#########@#@#@@$@@#@..++",
"  ++##@##############@@%#@##..  ",
"  ++@@#@###@#@@@@#@#@#@&@#@@..  ",
"  ++@@@@@@@@@@@@@@@@#@@&@@@@  ++",
"  ++%%&&&&&&&&&&&&&&&&&&&&%%  ++",
"++..###@**==****==****==@###++..",
"++..###@%%%%%*==***===**@###++..",
"....###@****=&-%%&&-**==@###....",
"....##@@==*&--*=====-&%%@@##....",
"..++###@**&**&----&&=&**@###..++",
"..++##@@%&%&----&&---*%%@@##..++",
"  ++##@@&*---&&--&&--&**@@##  ++",
"  ++##@@=--&&-----&&--==@@##  ++",
"    ##@@--&&----&&&&-&==@@##..  ",
"    @##@*-&&&-&&&&-&=-%%@##@..  ",
"    ##@@%%-&&&&--&%%-&**@@##..  ",
"    @##@=&=---&**&--****@##@..  ",
"++  ##@#%%**%%%-&--&==%%#@##..  ",
"++  @@#@*=%&&-**==******@#@@..  ",
"..++@@@@***-&&-=%%%%%==%@@@@++  ",
"..++%%&&==**-=%%%%==***=&&&%++  ",
"....@#@@@@@@@@@@@@@@@@@=@@@@  ++",
"....@@#@#@#@@@@@@@#@#@#%@@#@  ++",
"++..##@#@###@#####@####&@#@@++  ",
"++..@#@@###############&#@##++  ",
"  ++%%&&&&&&&&&&&&&&&&&&&&%%++  ",
"  ++  ++  ++++++  ++  ++    ++  ",
"  ++  ++    ..++++  ..  ..++  ++",
"  ++  ++    ..++++  ..  ..++  ++"};
