/* XPM */
static char * player_xpm[] = {
"32 32 10 1",
" 	c #5B6F5F",
".	c #707B64",
"+	c #2C1D35",
"@	c #64765E",
"#	c #57263B",
"$	c #7A2A3A",
"%	c #A0BD95",
"&	c #657D82",
"*	c #474059",
"=	c #525D6B",
"  ..  ..    ++++    @@    ..@@..",
"  ..  ..    ++++    @@    ..@@..",
"  ..  @@..++##$$++++++@@  @@..@@",
"  ..  @@..++##$$++++++@@  @@..@@",
"  @@  ++++$$$$$$##%%&&++    ..  ",
"  @@  ++++$$$$$$##%%&&++    ..  ",
"  @@@@++%%##$$##%%&&&&&&++@@  @@",
"  @@@@++%%##$$##%%&&&&&&++@@  @@",
"@@..@@++**++%%%%&&&&&&==++..@@..",
"@@..@@++**++%%%%&&&&&&==++..@@..",
"....@@..++%%==++==++****++......",
"....@@..++%%==++==++****++......",
"..@@  @@++**++******++==++@@..@@",
"..@@  @@++**++******++==++@@..@@",
"  @@..  ++====&&++&&====++@@  @@",
"  @@..  ++====&&++&&====++@@  @@",
"    ....++**##$$$$$$##**++  ..  ",
"    ....++**##$$$$$$##**++  ..  ",
"    ..  @@++**==&&==**++    ..  ",
"    ..  @@++**==&&==**++    ..  ",
"@@    ..++==++++++++++++  @@..  ",
"@@    ..++==++++++++++++  @@..  ",
"..@@  ++++++==&&&&&&==++++..@@  ",
"..@@  ++++++==&&&&&&==++++..@@  ",
"....++**&&++==&&&&&&++&&&&++  @@",
"....++**&&++==&&&&&&++&&&&++  @@",
"@@..++==&&++&&&&==&&++****++@@  ",
"@@..++==&&++&&&&==&&++****++@@  ",
"  @@  ++++++====++====++++  @@  ",
"  @@  ++++++====++====++++  @@  ",
"  @@  @@  ++++**++==**++..@@  @@",
"  @@  @@  ++++**++==**++..@@  @@"};
