/* XPM */
static char * wall_xpm[] = {
"32 32 6 1",
" 	c #A3A4A6",
".	c #C4C3BC",
"+	c #405051",
"@	c #787685",
"#	c #5E5D6B",
"$	c #736E7D",
"  ..++..  .. ..             ..  ",
"  ..++..  .. ..             ..  ",
"  . @@..                     .  ",
".. .##. ..  .  ..... ...    . ..",
"....##..  ......................",
"....##..  ......................",
"....##..  ......................",
"@@############################@@",
" ...             ..  .  ..+++.. ",
" ...             ..  .  ..+++.. ",
" .                      ..@@@ . ",
". ..    ..  .....  .. .. .###. .",
". ..    ..  .....  .. .. .###. .",
"......................  ..###...",
"......................  ..###...",
"@##############################@",
"...$$$......................... ",
"...$$$......................... ",
" ..@@@ .  .  ........... .  .. .",
". .###     ..       ..    ..  . ",
". .###     ..       ..    ..  . ",
" . ###                      ... ",
" . ###                      ... ",
"@##############################@",
" .........................@@@...",
" .........................@@@...",
". .   . ...........  .  . @@@.. ",
" . ...    .        ..     ###. .",
" . ...    .        ..     ###. .",
" ..                       ### . ",
" ..                       ### . ",
"@##############################@"};
